@extra/phlat-icons/symbolic-24/pcloud-icon.svg

<?xml version="1.0" encoding="UTF-8" standalone="no"?>
<svg id="svg39" xmlns="http://www.w3.org/2000/svg" viewBox="-4 -4 24 24" version="1.1"><path id="path4489" style="stroke-width:.39396;fill:#f1f2f2" d="m8 3c-1.2975 0-2.3495 1.1473-2.6973 2.416-0.3962-0.2224-0.8246-0.3828-1.3027-0.3828-1.5771 0-3.0566 1.1688-3.0566 2.8555-0.00004 0.3536 0.0917 0.678 0.1953 0.9941-0.78479 0.4702-1.1387 1.3362-1.1387 2.3672 0.00042008 1.519 1.1523 2.75 2.5723 2.75h10.856c1.42 0 2.572-1.231 2.572-2.75 0-1.03-0.354-1.8962-1.139-2.3672 0.104-0.3161 0.196-0.6405 0.196-0.9941 0-1.6867-1.48-2.8555-3.057-2.8555-0.478 0-0.907 0.1604-1.303 0.3828-0.348-1.2687-1.3995-2.416-2.697-2.416zm-1.8008 3h0.6016c0.0586 0 0.108 0.0265 0.1445 0.0664a2.5 2.5 0 0 1 0.5547 -0.0664 2.5 2.5 0 0 1 2.5 2.5 2.5 2.5 0 0 1 -2.5 2.5 2.5 2.5 0 0 1 -0.5 -0.055v1.856c0 0.111-0.0884 0.199-0.1992 0.199h-0.6016c-0.1108 0-0.1992-0.088-0.1992-0.199v-6.6018c0-0.1108 0.0884-0.1992 0.1992-0.1992zm1.3008 1a1.5 1.5 0 0 0 -0.5 0.0879v2.8242a1.5 1.5 0 0 0 0.5 0.0879 1.5 1.5 0 0 0 1.5 -1.5 1.5 1.5 0 0 0 -1.5 -1.5z"/></svg>

<svg xmlns="http://www.w3.org/2000/svg" viewBox="-4 -4 24 24">
    <path d="M8 3C6.702 3 5.65 4.147 5.303 5.416c-.397-.222-.825-.383-1.303-.383C2.423 5.033.943 6.202.943 7.89c0 .353.092.678.196.994C.354 9.353 0 10.219 0 11.25 0 12.769 1.152 14 2.572 14h10.856C14.848 14 16 12.769 16 11.25c0-1.03-.354-1.896-1.139-2.367.104-.316.196-.64.196-.994 0-1.687-1.48-2.856-3.057-2.856-.478 0-.907.16-1.303.383C10.35 4.147 9.297 3 8 3zM6.2 6h.6c.06 0 .109.026.145.066A2.5 2.5 0 0 1 7.5 6 2.5 2.5 0 0 1 10 8.5 2.5 2.5 0 0 1 7.5 11a2.5 2.5 0 0 1-.5-.055v1.856a.198.198 0 0 1-.2.199h-.6c-.112 0-.2-.088-.2-.199V6.199C6 6.09 6.088 6 6.2 6zm1.3 1a1.5 1.5 0 0 0-.5.088v2.824a1.5 1.5 0 0 0 .5.088A1.5 1.5 0 0 0 9 8.5 1.5 1.5 0 0 0 7.5 7z" stroke-width=".394" fill="#f1f2f2"/>
</svg>
